!!!COM: Bach, Johann Sebastian
!!!CDT: 1685/3//-1750/7/28/
!!!OTL@@DE: O Haupt voll Blut und Wunden
!!!OTL@EN:  O sacred head now wounded
!!!OPR: Christmas Oratorio
!!!AGN: 4-Part Chorale
!!!SCT: BH 345
!!!SCT: BWV 248
**harm	**root	**kern	**kern	**kern	**kern
!	!	!bass	!tenor	!alto	!soprno
*	*Iorgan	*Iorgan	*Iorgan	*Iorgan	*Iorgan
*	*	*clefF4	*clefF4	*clefF4	*clefF4
*M4/4	*M4/4	*M4/4	*M4/4	*M4/4	*M4/4
*met(c)	*met(c)	*met(c)	*met(c)	*met(c)	*met(c)
*MM56	*MM56	*MM56	*MM56	*MM56	*MM56
*k[f#c#g#d#a#]	*k[f#c#g#d#a#]	*k[f#c#g#d#a#]	*k[f#c#g#d#a#]	*k[f#c#g#d#a#]	*k[f#c#g#d#a#]
*g#:	*g#:	*g#:	*g#:	*g#:	*g#:
*>[A,A,B]	*>[A,A,B]	*>[A,A,B]	*>[A,A,B]	*>[A,A,B]	*>[A,A,B]
*>A	*>A	*>A	*>A	*>A	*>A
V7	4EE	4D#	4F##	8d#	4d#
.	.	.	.	8c#	.
=1	=1	=1	=1	=1	=1
VI	4FF	4E	4G#	8B	4g#
.	.	.	.	8c#	.
-VII	4GG	4F#	4A#	8c#	4f#
.	.	.	.	8d#	.
VI7b	8FF	8G#	8B	8d#	4e
iio	8BB	8A#	8c#	8c#	.
III	4CC	4B	4F#	8c#	4d#
.	.	.	.	8B	.
=2	=2	=2	=2	=2	=2
iv	2DD	2E	8G#	4B	2c#
.	.	.	8F##	.	.
.	.	.	4G#	8A#	.
.	.	.	.	8G#	.
V	4EE	4D#;	4F##;	4A#;	4d#;
V	4EE	4D#	4F##	4d#	4a#
=3	=3	=3	=3	=3	=3
i	4AA	8G#	8G#	4d#	4b
.	.	8F#	8A#	.	.
VI	4FF	8E	4B	4g#	4b
.	.	8D#	.	.	.
ii7D	4BB	8C#	4e	4g#	8a#
.	.	8AA#	.	.	16b
.	.	.	.	.	16cc#
V7	4EE	4D#	8d#	4f##	4a#
.	.	.	8c#	.	.
=4	=4	=4	=4	=4	=4
i	2.AA	2.GG#;	2.B;	2.d#;	2.g#;
=:|!	=:|!	=:|!	=:|!	=:|!	=:|!
*>B	*>B	*>B	*>B	*>B	*>B
i	4AA	4G#	4d#	8g#	4b
.	.	.	.	8f#	.
=5	=5	=5	=5	=5	=5
iiob	4BB	4C#	8c#	4e	8a#
.	.	.	8B	.	8g#
v	4EE	4D#	4A#	8d#	4f#
.	.	.	.	8c#	.
VI	4FF	8E	8G#	4B	4g#
.	.	8D#	8F#	.	.
iiob	4BB	4C#	8E	4e	4a#
.	.	.	8F#	.	.
=6	=6	=6	=6	=6	=6
VIb	4FF	8GG#	4G#	4e	2b
.	.	8AA#	.	.	.
III	4CC	4BB	8F#	8d#	.
.	.	.	8E	8c#	.
III	4CC	4BB;	4F#;	4d#;	4b;
III	4CC	4BB	4B	4d#	4f#
!!linebreak: 2
=7	=7	=7	=7	=7	=7
VI	4FF	8E	8B	4e	4g#
.	.	8D#	8c#	.	.
V7b/IV	4AA	8C#	4d#	8A	4f#
.	.	8BB#	.	8G#	.
iv	8DD	4C#	8c#	8G#	8e
vii/IV	8CC#	.	8B#	8F#	8d#
iv	8DD	4C#	8c#	8G#	4e
vii7Dc	8GG#	.	8F##	8c#	.
=8	=8	=8	=8	=8	=8
I	2.AA	2.GG#;	2.G#;	2.B#;	2.d#;
V7b/-VII	4DD	4E#	4G#	4c#	4b
=9	=9	=9	=9	=9	=9
-VII	4GG	4F#	8F#	4c#	8a#
.	.	.	8G#	.	8b
-VII	4GG	8F#	4A#	4f#	4cc#
.	.	8E#	.	.	.
IIIb	4CC	4.D#	8B	8f#	4b
.	.	.	8c#	8e#	.
V	4EE	.	4d#	4f#	4a#
.	.	8C#	.	.	.
=10	=10	=10	=10	=10	=10
i7	4AA	8BB	4d#	4f#	2g#
.	.	8GG#	.	.	.
V/-VII	4DD	4C#	4c#	4e#	.
-VII	4GG	4FF#;	4c#;	4f#;	4a#;
III	4CC	8BB	4B	4f#	4d#
.	.	8AA#	.	.	.
=11	=11	=11	=11	=11	=11
VIb	8FF	8GG#	8B	8B	4e
iio	8BB	8AA#	8A#	8c#	.
ib	4AA	[4BB	8A#	4B	4d#
.	.	.	8G#	.	.
ii7D	4BB	8BB]	4G#	4E	4c#
.	.	[8AA#	.	.	.
-VIIb	8GG	8AA#]	8F#	4c#	8f#
ivc	8DD	8GG#	8G#	.	8e
=12	=12	=12	=12	=12	=12
V7b	4EE	4FF##	4A#	4c#	2.d#;
i	4AA	4GG#	4G#	4B	.
V	4EE	4D#;	4F##;	4A#;	.
==	==	==	==	==	==
*-	*-	*-	*-	*-	*-
!!chor2scor: -l 2 -s 0.6 -o %b.pmx
!!!YEC: Copyright 2003 by Craig Stuart Sapp
!!!license: GNU General Public License (http://www.gnu.org/copyleft/gpl.html)
!!!SMA: 371 Bach Chorales, edited by Ludwig Erk, C.F. Peters
!!!PDT: 1850, 1865
!!!ONB: Harmony and Root analysis done manually by Craig Sapp
